svgs/sharp-thin/gamepad.svg

<svg xmlns="http://www.w3.org/2000/svg" viewBox="0 0 640 512"><!--! Font Awesome Pro 6.6.0 by @fontawesome - https://fontawesome.com License - https://fontawesome.com/license (Commercial License) Copyright 2024 Fonticons, Inc. --><path d="M16 80l0 352 608 0 0-352L16 80zM0 64l16 0 608 0 16 0 0 16 0 352 0 16-16 0L16 448 0 448l0-16L0 80 0 64zM200 192l0 56 56 0 8 0 0 16-8 0-56 0 0 56 0 8-16 0 0-8 0-56-56 0-8 0 0-16 8 0 56 0 0-56 0-8 16 0 0 8zM392 304a40 40 0 1 1 80 0 40 40 0 1 1 -80 0zm40 24a24 24 0 1 0 0-48 24 24 0 1 0 0 48zm64-160a40 40 0 1 1 0 80 40 40 0 1 1 0-80zm24 40a24 24 0 1 0 -48 0 24 24 0 1 0 48 0z"/></svg>

<svg xmlns="http://www.w3.org/2000/svg" viewBox="0 0 640 512"><!--! Font Awesome Pro 6.5.2 by @fontawesome - https://fontawesome.com License - https://fontawesome.com/license (Commercial License) Copyright 2024 Fonticons, Inc. --><path d="M16 80V432H624V80H16zM0 64H16 624h16V80 432v16H624 16 0V432 80 64zM200 192v56h56 8v16h-8H200v56 8H184v-8V264H128h-8V248h8 56V192v-8h16v8zM392 304a40 40 0 1 1 80 0 40 40 0 1 1 -80 0zm40 24a24 24 0 1 0 0-48 24 24 0 1 0 0 48zm64-160a40 40 0 1 1 0 80 40 40 0 1 1 0-80zm24 40a24 24 0 1 0 -48 0 24 24 0 1 0 48 0z"/></svg>
